!!!OTL-incipit: Siehgst du net do kummt er, der besuffne Schinder
!!!ARE: Europa, Mitteleuropa, Deutschland, Ober - Franken, Breitenlesau
!!!SCT: V0003A
!!!TXL: @@BAR
!!!YEM: Copyright 1995, estate of Helmut Schaffrath.
**kern	**text
*ICvox	*
*M2/4	*
*k[f#]	*
*G:	*
=1	=1
{8.d	Siehgst
16d	du
8e	net
8d	do
=2	=2
4d	kummt
4g}	er,
=3	=3
{8g	der
8g	be-
8g	-suf-
8g	-fne
=4	=4
4g	Schin-
4b}	-der.
=5	=5
{8.b	Siehgst
16a	du
8b	net
8a	do
=6	=6
8a	kummt
8g	er
4d}	schon,
=7	=7
{8d	der
8d	be-
8e	-suf-
8f#	-fne
=8	=8
8g	Schin-
8g	-ders-
4g}	-mo.
==	==
!!!AGN: Geselligkeits - Lied, Scherz
!! In der dritten Zeile rhythmisch korrigiert
!!!ONB: ESAC (Essen Associative Code) Database: VARIANT
!!!AMT: simple duple
!!!AIN: vox
!!!EED: Helmut Schaffrath
!!!EEV: 1.0
!!!GTL: Siehgst as net, da kimmt er (Kreuzpolka)
!!!source: Heigl, U.; Liertz, M. J. et al.: Registeer un Beispielsammlung zu den Forschungsexkursionen des Instituts für Volkskunde nach Oberfranken. Maschinenschriftliches Manuskript, München 1982.
!!!page: 85
!!!ENC: Anna Maria Matuszewska
!!!EEV: 2025/04/01
*-	*-
